X:1
T:Title
%%score { 1 | 2 }
L:1/8
M:3/4
K:G
V:1 treble nm="Grand Piano"
V:2 bass 
V:1
 z2 z2[Q:1/4=100] [B,D]2 | [DB]>[CA] [B,G]2 [DB]2 | [EB]>[EA] [CE]2 [DG]2 | F>E D2 [Fc]2 | %4
[M:2/4] [Fc]>[GB] [GB]2 |[M:1/4] [B,D]2 |[M:3/4] [DB]>[CA] [B,G]2 [=Fd]2 | [Ed]>[Ec] [Ec]2 [CEA]2 | %8
 [B,DG]>[A,DF] [DFB]2 [CDA]2 |[M:5/8] [CDA]>[G,B,DG] [G,B,DG]3 |[M:1/4] [Gd]2 | %11
[M:3/4] [Fe]>[FA] [FA]2 [Fc]2 | d>G G2 [DB]2 | [Dc]3 [DB] [EA][EG] |[M:2/4] F>G A2 |[M:1/4] D2 | %16
[M:3/4] G3 B AB |[M:7/8] [Ec]>[=Fd] [Ee]3 [Ge]2 |[M:3/4] [Gd]>[GB] [Gd]2 [GB]2 | %19
[M:2/4] [FA]>[B,DG] [B,DG]2 |] %20
V:2
 z2 z2 [G,,G,]2 | [G,,G,]>[G,,G,] [G,,G,]2 [G,,G,]2 | [C,G,]>[C,G,] [C,G,]2 [B,,G,]2 | %3
 [D,A,D]>[D,G,C] [D,F,C]2 [D,A,]2 |[M:2/4] [D,A,]>[G,D] [G,D]2 |[M:1/4] [G,,G,]2 | %6
[M:3/4] [G,,G,]>[G,,G,] [G,,G,]2 [B,,G,]2 | [C,G,]>[C,G,] [C,G,]2 C,2 | D,>D, D,2 D,2 | %9
[M:5/8] D,>G,, G,,3 |[M:1/4] [G,B,]2 |[M:3/4] [D,C]>[D,C] [D,C]2 [D,A,]2 | %12
 [G,B,G]>[G,B,D][K:bass] [G,B,D]2 [G,,G,]2 | [A,,F,]3 [B,,G,] [C,G,][^C,A,] | %14
[M:2/4] [D,A,D]>[E,A,D] [F,A,D]2 |[M:1/4] [A,C]2 |[M:3/4] [G,B,D]3 [G,D] [G,C][G,D] | %17
[M:7/8] [C,G,]>[B,,G,] [C,G,]3 [C,C]2 |[M:3/4] [D,B,]>[D,G,] [D,B,]2 [D,D]2 | %19
[M:2/4] [D,C]>[G,,G,] [G,,G,]2 |] %20

